icons/bug.svg

<svg width="24" height="24" viewBox="0 0 24 24" fill="none" xmlns="http://www.w3.org/2000/svg">
<path fill-rule="evenodd" clip-rule="evenodd" d="M7.29289 2.29289C7.68342 1.90237 8.31658 1.90237 8.70711 2.29289L10.5622 4.14801C11.0269 4.05092 11.508 4 12 4C12.492 4 12.9731 4.05092 13.4378 4.14801L15.2929 2.29289C15.6834 1.90237 16.3166 1.90237 16.7071 2.29289C17.0976 2.68342 17.0976 3.31658 16.7071 3.70711L15.4858 4.92844C16.7179 5.63715 17.7133 6.70974 18.3261 8H20C20.5523 8 21 8.44772 21 9C21 9.55228 20.5523 10 20 10H18.929C18.9758 10.3269 19 10.6608 19 11V12H20C20.5523 12 21 12.4477 21 13C21 13.5523 20.5523 14 20 14H19V15C19 15.3392 18.9758 15.6731 18.929 16H20C20.5523 16 21 16.4477 21 17C21 17.5523 20.5523 18 20 18H18.3261C17.2031 20.3639 14.7937 22 12 22C9.20632 22 6.79692 20.3639 5.67393 18H4C3.44772 18 3 17.5523 3 17C3 16.4477 3.44772 16 4 16H5.07102C5.0242 15.6731 5 15.3392 5 15V14H4C3.44772 14 3 13.5523 3 13C3 12.4477 3.44772 12 4 12H5V11C5 10.6608 5.0242 10.3269 5.07102 10H4C3.44772 10 3 9.55228 3 9C3 8.44772 3.44772 8 4 8H5.67389C6.28669 6.70974 7.28207 5.63715 8.51423 4.92844L7.29289 3.70711C6.90237 3.31658 6.90237 2.68342 7.29289 2.29289ZM12 6C11.4932 6 11.0057 6.07509 10.5471 6.21408C9.02716 6.67477 7.81122 7.84233 7.28425 9.33325C7.10045 9.85326 7 10.4138 7 11V15C7 15.5862 7.10045 16.1467 7.28425 16.6668C7.97112 18.6101 9.82453 20 12 20C14.1755 20 16.0289 18.6101 16.7157 16.6668C16.8995 16.1467 17 15.5862 17 15V11C17 10.4138 16.8995 9.85326 16.7157 9.33325C16.1888 7.84233 14.9728 6.67477 13.4529 6.21408C12.9943 6.07509 12.5068 6 12 6ZM9 11C9 10.4477 9.44772 10 10 10H14C14.5523 10 15 10.4477 15 11C15 11.5523 14.5523 12 14 12H10C9.44772 12 9 11.5523 9 11ZM9 15C9 14.4477 9.44772 14 10 14H14C14.5523 14 15 14.4477 15 15C15 15.5523 14.5523 16 14 16H10C9.44772 16 9 15.5523 9 15Z" fill="black"/>
</svg>

<svg
  width="24"
  height="24"
  viewBox="0 0 24 24"
  xmlns="http://www.w3.org/2000/svg"
>
  <path
    fill-rule="evenodd"
    clip-rule="evenodd"
    d="M7.293 2.293a1 1 0 0 1 1.414 0l1.855 1.855a7.026 7.026 0 0 1 2.876 0l1.855-1.855a1 1 0 1 1 1.414 1.414l-1.221 1.221A7.027 7.027 0 0 1 18.326 8H20a1 1 0 1 1 0 2h-1.071c.047.327.071.66.071 1v1h1a1 1 0 1 1 0 2h-1v1c0 .34-.024.673-.071 1H20a1 1 0 1 1 0 2h-1.674A7 7 0 0 1 12 22a7 7 0 0 1-6.326-4H4a1 1 0 1 1 0-2h1.071A7.05 7.05 0 0 1 5 15v-1H4a1 1 0 1 1 0-2h1v-1c0-.34.024-.673.071-1H4a1 1 0 0 1 0-2h1.674a7.026 7.026 0 0 1 2.84-3.072l-1.221-1.22a1 1 0 0 1 0-1.415zM12 6a5 5 0 0 0-1.453.214A4.99 4.99 0 0 0 7 11v4c0 .586.1 1.147.284 1.667a5.002 5.002 0 0 0 9.432 0A4.99 4.99 0 0 0 17 15v-4a4.99 4.99 0 0 0-3.547-4.786A5 5 0 0 0 12 6zm-3 5a1 1 0 0 1 1-1h4a1 1 0 1 1 0 2h-4a1 1 0 0 1-1-1zm0 4a1 1 0 0 1 1-1h4a1 1 0 1 1 0 2h-4a1 1 0 0 1-1-1z"
  />
</svg>
